X: 4210
T: The KING
R: Jig
%R: jig
B: James Kerr "Merry Melodies" v.4 p.24 #210
Z: 2016 John Chambers <jc:trillian.mit.edu>
M: 6/8
L: 1/8
K: G
(3(D/E/F/ |\
G2)G AGA | Bcd efg | G2G AGA | BGE E2D |\
G2G AGA | Bcd efg | dcB AGA | BGG G2 :: f |\
gfg efg | fdd def | gfg aga |
bge e2f |\
gfg aga | bge efg | dcB cBA | BGG G2 :: D |\
DGG BGG | AGG BGG | efg dBG | AEE EFE |\
DGG BGG |
AGG BGG | efg dBG | AGG G2 :: e |\
efg fBB | bag fBB | eBB fBB | gfe ^dBB |\
efg fBB | bag fBB | efg fe^d | e3- e2 :|

%%sep 1 1 500
%%sep 1 1 500

